!!!COM: Manuel de Falla (y Matheu)
!!!OTL: [T318_Fal-w5p77h43m2-11]
**kern	**dynam	**kern	**dynam	**kern	**dynam	**kern	**dynam	**kern	**dynam	**kern	**kern	**dynam	**kern	**dynam	**kern	**dynam	**kern	**dynam	**kern	**dynam
*grp:A	*grp:A	*grp:B	*grp:B	*grp:B	*grp:B	*grp:B	*grp:B	*grp:B	*grp:B	*grp:A	*grp:A	*grp:A	*grp:A	*grp:A	*grp:A	*grp:A	*grp:A	*grp:A	*grp:B	*grp:B
*part12	*part12	*part11	*part11	*part10	*part10	*part9	*part9	*part8	*part8	*part6	*part6	*part6	*part5	*part5	*part3	*part3	*part2	*part2	*part1	*part1
*staff14	*	*staff13	*	*staff12	*	*staff11	*	*staff10	*	*staff7	*staff6	*	*staff5	*	*staff3	*	*staff2	*	*staff1	*
*I"Contrabass	*	*I"Violoncello	*	*I"Viola	*	*I"Violin II	*	*I"Violin I	*	*I"Harp	*	*	*I"Timpani	*	*I"Horn in F III.IV.	*	*I"Horn in F I.II.	*	*I"English Horn	*
*I'Cb.	*	*I'Vc.	*	*I'Vla.	*	*I'2.Vln.	*	*I'1.Vln.	*	*I'Hp.	*	*	*I'Timp.	*	*I'3.4.Hn.	*	*I'1.2.Hn.	*	*I'E.H.	*
*clefF4	*	*clefF4	*	*clefC3	*	*clefG2	*	*clefG2	*	*clefF4	*clefG2	*	*clefF4	*	*clefF4	*	*clefG2	*	*clefG2	*
*ITrd7c12	*	*	*	*	*	*	*	*	*	*	*	*	*	*	*ITrd-3c-5	*	*ITrd4c7	*	*ITrd4c7	*
*k[]	*	*k[]	*	*k[]	*	*k[]	*	*k[]	*	*k[]	*k[]	*	*k[]	*	*k[b-]	*	*k[b-]	*	*k[]	*
*C:	*	*C:	*	*C:	*	*C:	*	*C:	*	*C:	*C:	*	*C:	*	*F:	*	*F:	*	*C:	*
*M9/8	*	*M9/8	*	*M9/8	*	*M9/8	*	*M9/8	*	*M9/8	*M9/8	*	*M9/8	*	*M9/8	*	*M9/8	*	*M9/8	*
=175	=175	=175	=175	=175	=175	=175	=175	=175	=175	=175	=175	=175	=15	=175	=175	=175	=175	=175	=175	=175
*	*	*	*	*	*	*	*	*	*	*	*	*	*	*	*^	*	*	*	*	*
!	!	!	!	!	!	!	!	!	!	!	!	!	!	!	!	!	!	!	!	!LO:TX:t=a tempo, ma quasi doppio più lento che [quarter-dot] = [quarter] precedente ([quarter-dot] = 58)	!
!LO:TX:a:t=[arco]	!	!	!	!	!	!	!	!	!	!	!	!	!	!	!	!	!	!	!	!	!
!LO:TX:a:t=[Tutti con sord.]	!LO:DY:ed=brack	!	!LO:DY:ed=brack	!	!LO:DY:ed=brack	!	!LO:DY:ed=brack	!	!LO:DY:ed=brack	!	!	!LO:DY:ed=brack	!	!LO:DY:ed=brack	!LO:T:n=2:a	!	!LO:DY:ed=brack	!LO:T:n=1:b	!LO:DY:ed=brack	!	!
2.ryy	4ryy	4r	.	4r	.	4r	.	4r	.	8ryy	8%9ryy	4ryy	8ryy	4ryy	4ryy	2.ryy	4ryy	4ryy	4ryy	8%9r	.
.	.	.	.	.	.	.	.	.	.	8ryy	.	.	16ryy	.	.	.	.	.	.	.	.
.	.	.	.	.	.	.	.	.	.	.	.	.	16ryy	.	.	.	.	.	.	.	.
!	!	!LO:TX:a:t=con sord.	!	!	!	!	!	!	!	!	!	!	!	!	!	!	!	!	!	!	!
.	.	8r	.	8r	.	8r	.	8r	.	8ryy	.	.	16ryy	.	8ryy	.	.	8ryy	.	.	.
.	.	.	.	.	.	.	.	.	.	.	.	.	16ryy	.	.	.	.	.	.	.	.
!	!	!	!	!LO:TX:a:t=con sord.	!	!LO:TX:a:t=con sord.	!	!LO:TX:a:t=con sord.	!	!	!	!	!	!	!	!	!	!	!	!	!
.	.	4r	.	4r	.	4r	.	4r	.	8ryy	.	.	8ryy	.	4ryy	.	.	4ryy	.	.	.
.	.	.	.	.	.	.	.	.	.	8ryy	.	.	8ryy	.	.	.	.	.	.	.	.
!	!	!LO:TX:a:t=div.	!	!LO:TX:a:t=arco	!	!LO:TX:a:t=arco	!	!LO:TX:a:t=arco	!	!	!	!	!	!	!	!	!	!	!	!	!
!	!	!LO:TX:a:t=arco	!	!	!	!	!	!	!	!	!	!	!	!	!	!	!	!	!	!	!
.	.	8r	.	8r	.	8r	.	8r	.	8ryy	.	.	8ryy	.	8ryy	.	.	8ryy	.	.	.
*	*	*clefC4	*	*	*	*	*	*	*	*	*	*	*	*	*	*	*	*grp:B	*grp:B	*	*
4.ryy	.	((4.B-X 4.a-X	pp >	(4.dd	pp >	(4.gg#X	pp >	(4.eee	pp >	8ryy	.	.	8ryy	.	4ryy	4.ryy	.	((4.B-X 4.a-X	pp	.	.
.	.	.	.	.	.	.	.	.	.	8ryy	.	.	8ryy	.	.	.	.	.	.	.	.
.	.	.	.	.	.	.	.	.	.	8ryy	.	.	8ryy	.	8ryy	.	.	.	.	.	.
=176	=176	=176	=176	=176	=176	=176	=176	=176	=176	=176	=176	=176	=176	=176	=176	=176	=176	=176	=176	=176	=176
!	!	!LO:TX:a:t=unis.	!	!	!	!	!	!	!	!	!	!	!	!	!	!	!	!	!	!	!
2.ryy	.	([4.e-X))	.	([4.g)	.	([4.cc#X)	.	([4.aa)	.	8ryy	8%9ryy	.	8ryy	.	8%9ryy	2.ryy	.	4.e-X 4.dd-X))	>	8%9r	.
.	.	.	]	.	]	.	]	.	]	8ryy	.	.	16ryy	.	.	.	.	.	.	.	.
.	.	.	.	.	.	.	.	.	.	.	.	.	16ryy	.	.	.	.	.	.	.	.
.	.	.	.	.	.	.	.	.	.	8ryy	.	.	16ryy	.	.	.	.	.	.	.	.
.	.	.	.	.	.	.	.	.	.	.	.	.	16ryy	.	.	.	.	.	.	.	.
.	.	8.d#XL]	<	8.gL]	<	8.cc#L]	<	8.aaL]	<	8ryy	.	.	8ryy	.	.	.	.	4r	]	.	.
.	.	.	.	.	.	.	.	.	.	8ryy	.	.	8ryy	.	.	.	.	.	.	.	.
.	.	8.f#X	.	8.a	.	8.dd#X	.	8.bb	.	.	.	.	.	.	.	.	.	.	.	.	.
.	.	.	.	.	.	.	.	.	.	8ryy	.	.	8ryy	.	.	.	.	8r	.	.	.
4.ryy	.	8.g#X	.	8.b	.	8.ee#X	.	8.ccc#X	.	8ryy	.	.	8ryy	.	.	4.ryy	.	4r	.	.	.
.	.	.	.	.	.	.	.	.	.	8ryy	.	.	8ryy	.	.	.	.	.	.	.	.
.	.	8.aJ)	[	8.ccniJ)	[	8.ff#XJ)	[	8.dddJ)	[	.	.	.	.	.	.	.	.	.	.	.	.
.	.	.	.	.	.	.	.	.	.	8ryy	.	.	8ryy	.	.	.	.	8r	.	.	.
!!pagebreak:original
=177	=177	=177	=177	=177	=177	=177	=177	=177	=177	=177	=177	=177	=177	=177	=177	=177	=177	=177	=177	=177	=177
2.ryy	.	2.d#X	>	2.f#X	>	2.b#X	>	2.gg#X	>	8ryy	8%9ryy	.	8ryy	.	8%9ryy	4.ryy	.	4r	.	8%9r	.
.	.	.	.	.	.	.	.	.	.	8ryy	.	.	16ryy	.	.	.	.	.	.	.	.
.	.	.	.	.	.	.	.	.	.	.	.	.	16ryy	.	.	.	.	.	.	.	.
.	.	.	.	.	.	.	.	.	.	8ryy	.	.	16ryy	.	.	.	.	8r	.	.	.
.	.	.	.	.	.	.	.	.	.	.	.	.	16ryy	.	.	.	.	.	.	.	.
.	.	.	.	.	.	.	.	.	.	8ryy	.	.	8ryy	.	.	2.ryy	.	4r	.	.	.
.	.	.	.	.	.	.	.	.	.	8ryy	.	.	8ryy	.	.	.	.	.	.	.	.
.	.	.	]	.	]	.	]	.	]	8ryy	.	.	8ryy	.	.	.	.	8r	.	.	.
!	!	!LO:TX:a:t=div.	!	!	!	!	!	!	!	!	!	!	!	!	!	!	!	!	!	!	!
4.ryy	.	((4.dn 4.g#X	>	(4.b	>	(4.ee#X	>	(4.ccc#X	>	8ryy	.	.	8ryy	.	.	.	.	((4.d 4.g#X	.	.	.
.	.	.	.	.	.	.	.	.	.	8ryy	.	.	8ryy	.	.	.	.	.	.	.	.
.	.	.	.	.	.	.	.	.	.	8ryy	.	.	8ryy	.	.	.	.	.	.	.	.
=178	=178	=178	=178	=178	=178	=178	=178	=178	=178	=178	=178	=178	=178	=178	=178	=178	=178	=178	=178	=178	=178
!	!	!LO:TX:a:t=unis.	!	!	!	!	!	!	!	!	!	!	!	!	!	!	!	!	!	!	!
2.ryy	.	([4.c))	.	([4.e)	]	([>4.a#X)	]	([4.ff#X)	.	8ryy	8%9ryy	.	8ryy	.	8%9ryy	2.ryy	.	4.cni 4.a#X))	>	8%9r	.
.	.	.	]	.	.	.	.	.	]	8ryy	.	.	16ryy	.	.	.	.	.	.	.	.
.	.	.	.	.	.	.	.	.	.	.	.	.	16ryy	.	.	.	.	.	.	.	.
.	.	.	.	.	.	.	.	.	.	8ryy	.	.	16ryy	.	.	.	.	.	.	.	.
.	.	.	.	.	.	.	.	.	.	.	.	.	16ryy	.	.	.	.	.	.	.	.
.	.	8.cL]	<	8.eL]	<	8.a#L]	<	8.ff#L]	<	8ryy	.	.	8ryy	.	.	.	.	4r	]	.	.
.	.	.	.	.	.	.	.	.	.	8ryy	.	.	8ryy	.	.	.	.	.	.	.	.
.	.	8.d#X	.	8.f#X	.	8.b#X	.	8.gg#X	.	.	.	.	.	.	.	.	.	.	.	.	.
.	.	.	.	.	.	.	.	.	.	8ryy	.	.	8ryy	.	.	.	.	8r	.	.	.
4.ryy	.	8.e	.	8.g	.	8.cc#X	.	8.aa	.	8ryy	.	.	8ryy	.	.	4.ryy	.	4r	.	.	.
.	.	.	.	.	.	.	.	.	.	8ryy	.	.	8ryy	.	.	.	.	.	.	.	.
.	.	8.f#XJ)	[	8.aJ)	[	8.dd#XJ)	[	8.bbJ)	[	.	.	.	.	.	.	.	.	.	.	.	.
.	.	.	.	.	.	.	.	.	.	8ryy	.	.	8ryy	.	.	.	.	8r	.	.	.
*	*	*	*	*	*	*	*	*	*	*	*	*	*	*	*	*	*	*clefF4	*	*	*
=179	=179	=179	=179	=179	=179	=179	=179	=179	=179	=179	=179	=179	=179	=179	=179	=179	=179	=179	=179	=179	=179
*	*	*	*	*	*	*	*	*	*	*	*	*	*	*	*	*	*	*^	*	*	*
!	!	!	!	!	!	!	!	!	!	!	!	!	!	!	!	!	!	!LO:TX:b:B:t=2º	!	!	!	!
*	*	*	*	*	*	*	*	*	*	*	*	*	*	*	*	*	*	*gr	*grp:A	*grp:A	*	*
2.ryy	.	2.B	>	2.d	>	2.g#X	>	2.ee	>	8ryy	8%9ryy	.	8ryy	.	8%9ryy	4.ryy	.	8%9r	4rCCyy	.	8%9r	.
.	.	.	.	.	.	.	.	.	.	8ryy	.	.	16ryy	.	.	.	.	.	.	.	.	.
.	.	.	.	.	.	.	.	.	.	.	.	.	16ryy	.	.	.	.	.	.	.	.	.
.	.	.	.	.	.	.	.	.	.	8ryy	.	.	16ryy	.	.	.	.	.	8ryy	.	.	.
.	.	.	.	.	.	.	.	.	.	.	.	.	16ryy	.	.	.	.	.	.	.	.	.
.	.	.	.	.	.	.	.	.	.	8ryy	.	.	8ryy	.	.	4ryy	.	.	2.ryy	.	.	.
.	.	.	.	.	.	.	.	.	.	8ryy	.	.	8ryy	.	.	.	.	.	.	.	.	.
.	.	.	]	.	]	.	]	.	]	8ryy	.	.	8ryy	.	.	8ryy	.	.	.	.	.	.
!	!	!LO:TX:b:i:t=cresc.	!	!LO:TX:b:i:t=cresc.	!	!LO:TX:b:i:t=cresc.	!	!LO:TX:b:i:t=cresc.	!	!	!	!	!	!	!	!	!	!	!	!	!	!
4.ryy	.	(4.e-X	.	(4.g	.	(4.cc#X	.	(4.aa	.	8ryy	.	.	8ryy	.	.	4ryy	.	.	.	.	.	.
.	.	.	.	.	.	.	.	.	.	8ryy	.	.	8ryy	.	.	.	.	.	.	.	.	.
.	.	.	.	.	.	.	.	.	.	8ryy	.	.	8ryy	.	.	8ryy	.	.	.	.	.	.
*	*	*	*	*	*	*	*	*	*	*	*	*	*	*	*v	*v	*	*	*	*	*	*
!!pagebreak:original
=180	=180	=180	=180	=180	=180	=180	=180	=180	=180	=180	=180	=180	=180	=180	=180	=180	=180	=180	=180	=180	=180
!	!	!	!	!	!	!	!	!LO:TX:a:B:t=poco affrett.	!	!	!	!	!	!	!	!	!	!	!	!LO:TX:a:B:t=poco affrett.	!
2.ryy	.	([4.A)	<	([4.c)	<	([4.f#X)	<	([4.dd)	<	8ryy	8%9ryy	.	8ryy	.	8%9ryy	.	8%9r	2.ryy	.	8%9r	.
.	.	.	.	.	.	.	.	.	.	8ryy	.	.	16ryy	.	.	.	.	.	.	.	.
.	.	.	.	.	.	.	.	.	.	.	.	.	16ryy	.	.	.	.	.	.	.	.
.	.	.	.	.	.	.	.	.	.	8ryy	.	.	16ryy	.	.	.	.	.	.	.	.
.	.	.	.	.	.	.	.	.	.	.	.	.	16ryy	.	.	.	.	.	.	.	.
.	.	8.AL]	.	8.cL]	.	8.f#L]	.	8.ddL]	.	8ryy	.	.	8ryy	.	.	.	.	.	.	.	.
.	.	.	.	.	.	.	.	.	.	8ryy	.	.	8ryy	.	.	.	.	.	.	.	.
.	.	8.B	.	8.d	.	8.g#X	.	8.ee	.	.	.	.	.	.	.	.	.	.	.	.	.
.	.	.	.	.	.	.	.	.	.	8ryy	.	.	8ryy	.	.	.	.	.	.	.	.
4.ryy	.	8.c#X	.	8.e	.	8.a#X	.	8.ff#X	.	8ryy	.	.	8ryy	.	.	.	.	4.ryy	.	.	.
.	.	.	.	.	.	.	.	.	.	8ryy	.	.	8ryy	.	.	.	.	.	.	.	.
.	.	8.dJ)	.	8.nifJ)	.	8.bJ)	.	8.ggJ)	.	.	.	.	.	.	.	.	.	.	.	.	.
.	.	.	.	.	.	.	.	.	.	8ryy	.	.	8ryy	.	.	.	.	.	.	.	.
=181	=181	=181	=181	=181	=181	=181	=181	=181	=181	=181	=181	=181	=181	=181	=181	=181	=181	=181	=181	=181	=181
*	*	*	*	*	*	*	*	*	*	*	*	*	*	*	*^	*	*	*	*	*	*
2.ryy	.	(8.GL	.	(8.BL	.	(8.e#XL	.	(8.cc#XL	.	8ryy	8%9ryy	.	8ryy	.	8%9ryy	4rCCyy	.	8%9r	4.ryy	.	4r	.
.	.	.	.	.	.	.	.	.	.	8ryy	.	.	16ryy	.	.	.	.	.	.	.	.	.
.	.	8.A	.	8.c	.	8.f#X	.	8.dd	.	.	.	.	16ryy	.	.	.	.	.	.	.	.	.
.	.	.	.	.	.	.	.	.	.	8ryy	.	.	16ryy	.	.	8rCCyy	.	.	.	.	8r	.
.	.	.	.	.	.	.	.	.	.	.	.	.	16ryy	.	.	.	.	.	.	.	.	.
.	.	8.B	.	8.d	.	8.g#X	.	8.ee	.	8ryy	.	.	8ryy	.	.	2.ryy	.	.	4rCCyy	.	4r	.
.	.	.	.	.	.	.	.	.	.	8ryy	.	.	8ryy	.	.	.	.	.	.	.	.	.
.	.	8.c#XJ)	.	8.eJ)	.	8.a#XJ)	.	8.ff#XJ)	.	.	.	.	.	.	.	.	.	.	.	.	.	.
.	.	.	.	.	.	.	.	.	.	8ryy	.	.	8ryy	.	.	.	.	.	8rCCyy	.	8r	.
*	*	*	*	*	*	*	*	*	*	*	*	*	*	*	*	*	*	*	*clefG2	*	*	*
!	!	!	!	!	!	!	!	!LO:TX:a:B:t=calmando	!	!	!	!	!	!	!	!	!	!	!	!	!LO:TX:a:B:t=calmando	!
*	*	*	*	*	*	*	*	*	*	*	*	*	*	*	*	*	*	*	*grp:B	*grp:B	*	*
4.ryy	.	4.g~	f	(8.f#X~L	f	4.d~> 4.b	f	(8.b~L	f	8ryy	.	.	8ryy	.	.	.	.	.	4.d	mf	(8.f#X~L	f >
.	.	.	.	.	.	.	.	.	.	8ryy	.	.	8ryy	.	.	.	.	.	.	.	.	.
.	.	.	.	8.eJ)	.	.	.	8.eeJ)	.	.	.	.	.	.	.	.	.	.	.	.	8.eJ)	.
.	.	.	.	.	.	.	.	.	.	8ryy	.	.	8ryy	.	.	.	.	.	.	.	.	]
=182	=182	=182	=182	=182	=182	=182	=182	=182	=182	=182	=182	=182	=182	=182	=182	=182	=182	=182	=182	=182	=182	=182
2.ryy	.	4.f#X~	.	(8.e~L	.	4.c#X~> 4.a	.	(8.a~L	.	8ryy	8%9ryy	.	8ryy	.	8%9ryy	2.ryy	.	4rff	4.c#X	.	(8.eL	>
.	.	.	.	.	.	.	.	.	.	8ryy	.	.	16ryy	.	.	.	.	.	.	.	.	.
.	.	.	.	8.dJ)	.	.	.	8.ddJ)	.	.	.	.	16ryy	.	.	.	.	.	.	.	8.dJ)	.
.	.	.	.	.	.	.	.	.	.	8ryy	.	.	16ryy	.	.	.	.	8rff	.	.	.	]
.	.	.	.	.	.	.	.	.	.	.	.	.	16ryy	.	.	.	.	.	.	.	.	.
!	!	!	!	!	!	!	!	!LO:TX:a:B:t=poco rit.	!	!	!	!	!	!	!	!	!	!	!	!LO:DY:a	!LO:TX:a:B:t=poco rit.	!
.	.	(4.e~	.	2.fn~	.	2.B~>	.	(8.g~>L	.	8ryy	.	.	8ryy	.	.	.	.	(8.g~L	2.BX~	mf	(4.e	f
.	.	.	.	.	.	.	.	.	.	8ryy	.	.	8ryy	.	.	.	.	.	.	.	.	.
.	.	.	.	.	.	.	.	8.a~>	.	.	.	.	.	.	.	.	.	8.a~	.	.	.	.
.	.	.	.	.	.	.	.	.	.	8ryy	.	.	8ryy	.	.	.	.	.	.	.	.	.
4.ryy	.	4.d~	.	.	.	.	.	8.b~>	.	8ryy	.	.	8ryy	.	.	4.ryy	.	8.bX~	.	.	4.d	.
.	.	.	.	.	.	.	.	.	.	8ryy	.	.	8ryy	.	.	.	.	.	.	.	.	.
.	.	.	.	.	.	.	.	8.cc#X~>J)	.	.	.	.	.	.	.	.	.	8.cc#X~J)	.	.	.	.
.	.	.	.	.	.	.	.	.	.	8ryy	.	.	8ryy	.	.	.	.	.	.	.	.	.
!!pagebreak:original
=183	=183	=183	=183	=183	=183	=183	=183	=183	=183	=183	=183	=183	=183	=183	=183	=183	=183	=183	=183	=183	=183	=183
!	!	!	!	!	!	!	!	!LO:TX:a:B:t=a tempo	!	!	!	!	!	!	!	!	!	!	!	!	!LO:TX:a:B:t=a tempo	!
2.ryy	.	2.c#X~)	>	2.e~	>	2.A#X~>	>	2.f#X~>	>	8ryy	8%9ryy	.	8ryy	.	8%9ryy	4.ryy	.	[4.f#X~	[4.A#X	> >	2.c#X)	>
.	.	.	.	.	.	.	.	.	.	8ryy	.	.	16ryy	.	.	.	.	.	.	.	.	.
.	.	.	.	.	.	.	.	.	.	.	.	.	16ryy	.	.	.	.	.	.	.	.	.
.	.	.	.	.	.	.	.	.	.	8ryy	.	.	16ryy	.	.	.	.	.	.	.	.	.
.	.	.	.	.	.	.	.	.	.	.	.	.	16ryy	.	.	.	.	.	.	.	.	.
.	.	.	.	.	.	.	.	.	.	8ryy	.	.	8ryy	.	.	2.ryy	.	8f#]	8A#]	] ]	.	.
*	*	*	*	*	*	*	*	*	*	*	*	*	*	*	*	*	*	*v	*v	*	*	*
.	.	.	.	.	.	.	.	.	.	8ryy	.	.	8ryy	.	.	.	.	8r	.	.	.
.	.	.	.	.	.	.	.	.	.	8ryy	.	.	8ryy	.	.	.	.	8r	.	.	]
4.ryy	.	(4.d	mf ]	(4.b	mf ]	(4.g#X	mf ]	(>4.ee	mf ]	8ryy	.	.	8ryy	.	.	.	.	4r	.	(>4.d	mf
.	.	.	.	.	.	.	.	.	.	8ryy	.	.	8ryy	.	.	.	.	.	.	.	.
.	.	.	.	.	.	.	.	.	.	8ryy	.	.	8ryy	.	.	.	.	8r	.	.	.
=184	=184	=184	=184	=184	=184	=184	=184	=184	=184	=184	=184	=184	=184	=184	=184	=184	=184	=184	=184	=184	=184
2.ryy	.	2.f#X)	.	2.c#X)	.	2.A#X)	.	2.e)	.	8ryy	8%9ryy	.	8ryy	.	8%9ryy	4.ryy	.	8%9r	.	[4.f#X)	.
.	.	.	.	.	.	.	.	.	.	8ryy	.	.	16ryy	.	.	.	.	.	.	.	.
.	.	.	.	.	.	.	.	.	.	.	.	.	16ryy	.	.	.	.	.	.	.	.
.	.	.	.	.	.	.	.	.	.	8ryy	.	.	16ryy	.	.	.	.	.	.	.	.
.	.	.	.	.	.	.	.	.	.	.	.	.	16ryy	.	.	.	.	.	.	.	.
.	.	.	.	.	.	.	.	.	.	8ryy	.	.	8ryy	.	.	2.ryy	.	.	.	8f#]	.
.	.	.	.	.	.	.	.	.	.	8ryy	.	.	8ryy	.	.	.	.	.	.	8r	.
.	.	.	.	.	.	.	.	.	.	8ryy	.	.	8ryy	.	.	.	.	.	.	8r	.
*	*	*	*	*	*	*^	*	*^	*	*	*	*	*	*	*	*	*	*	*	*	*
!	!	!	!	!	!	!LO:TX:a:t=div.	!	!	!LO:TX:a:t=div.	!	!	!	!	!	!	!	!	!	!	!	!	!	!
4.ryy	.	4r	.	4r	.	(4.b~	(4.d	p > ]	(4.ee~	(4.g#X	p > ]	8ryy	.	.	8ryy	.	.	.	.	.	.	4.r	.
.	.	.	.	.	.	.	.	.	.	.	.	8ryy	.	.	8ryy	.	.	.	.	.	.	.	.
.	.	8r	.	8r	.	.	.	.	.	.	.	8ryy	.	.	8ryy	.	.	.	.	.	.	.	.
*	*	*clefF4	*	*	*	*	*	*	*	*	*	*	*	*	*	*	*	*	*	*	*	*	*
*	*	*	*	*	*	*v	*v	*	*v	*v	*	*	*	*	*	*	*v	*v	*	*	*	*	*
=||	=||	=||	=||	=||	=||	=||	=||	=||	=||	=||	=||	=||	=||	=||	=||	=||	=||	=||	=||	=||
*-	*-	*-	*-	*-	*-	*-	*-	*-	*-	*-	*-	*-	*-	*-	*-	*-	*-	*-	*-	*-
!!!system-decoration: [(s1[({(s2,s3)})]s4,s5[({(s6,s7)})][({(s8,s9)})][({(s10,s11)})](s12)[({(s13,s14)})])]
!!!RDF**kern: i = editorial accidental, paren
!!!RDF**kern: > = above
!!!RDF**kern: < = below
!!!EED: Kelsey Lussier
!!!EEV: 2021/08/09
!!!EED2: Daniel Wright
!!!EEV2: 2022/01/28
